packages/dnb-ui-lib/assets/icons/document_add.svg

<svg width="16" height="16" viewBox="0 0 16 16" fill="none" xmlns="http://www.w3.org/2000/svg">
<path d="M8.61958 1.35383L8.04718 1.83846L8.61958 1.35383ZM9.0176 2.98463C9.28526 3.30075 9.7585 3.34005 10.0746 3.07239C10.3908 2.80474 10.43 2.3315 10.1624 2.01537L9.0176 2.98463ZM4 15.75C4.41421 15.75 4.75 15.4142 4.75 15C4.75 14.5858 4.41421 14.25 4 14.25V15.75ZM9.5 12.4375C9.5 12.8517 9.83579 13.1875 10.25 13.1875C10.6642 13.1875 11 12.8517 11 12.4375H9.5ZM11 8.0625C11 7.64829 10.6642 7.3125 10.25 7.3125C9.83579 7.3125 9.5 7.64829 9.5 8.0625H11ZM12.4375 11C12.8517 11 13.1875 10.6642 13.1875 10.25C13.1875 9.83579 12.8517 9.5 12.4375 9.5V11ZM8.0625 9.5C7.64829 9.5 7.3125 9.83579 7.3125 10.25C7.3125 10.6642 7.64829 11 8.0625 11V9.5ZM2 1.75H7.85638V0.25H2V1.75ZM1.75 14V2H0.25V14H1.75ZM8.04718 1.83846L9.0176 2.98463L10.1624 2.01537L9.19197 0.869202L8.04718 1.83846ZM4 14.25H2V15.75H4V14.25ZM0.25 14C0.25 14.9665 1.0335 15.75 2 15.75V14.25C1.86193 14.25 1.75 14.1381 1.75 14H0.25ZM7.85638 1.75C7.92989 1.75 7.99968 1.78235 8.04718 1.83846L9.19197 0.869202C8.85946 0.476478 8.37096 0.25 7.85638 0.25V1.75ZM2 0.25C1.0335 0.25 0.25 1.0335 0.25 2H1.75C1.75 1.86193 1.86193 1.75 2 1.75V0.25ZM14.4219 10.25C14.4219 12.5541 12.5541 14.4219 10.25 14.4219V15.9219C13.3825 15.9219 15.9219 13.3825 15.9219 10.25H14.4219ZM10.25 14.4219C7.94594 14.4219 6.07812 12.5541 6.07812 10.25H4.57812C4.57812 13.3825 7.11751 15.9219 10.25 15.9219V14.4219ZM6.07812 10.25C6.07812 7.94594 7.94594 6.07812 10.25 6.07812V4.57812C7.11751 4.57812 4.57812 7.11751 4.57812 10.25H6.07812ZM10.25 6.07812C12.5541 6.07812 14.4219 7.94594 14.4219 10.25H15.9219C15.9219 7.11751 13.3825 4.57812 10.25 4.57812V6.07812ZM11 12.4375V8.0625H9.5V12.4375H11ZM12.4375 9.5H8.0625V11H12.4375V9.5Z" fill="black"/>
</svg>

<svg width="16" height="16" viewBox="0 0 16 16" fill="none" xmlns="http://www.w3.org/2000/svg"><path d="M8.62 1.354l-.573.484.573-.484zm.398 1.63a.75.75 0 101.144-.969l-1.144.97zM4 15.75a.75.75 0 000-1.5v1.5zm5.5-3.313a.75.75 0 001.5 0H9.5zM11 8.064a.75.75 0 00-1.5 0H11zM12.438 11a.75.75 0 000-1.5V11zM8.061 9.5a.75.75 0 000 1.5V9.5zM2 1.75h5.856V.25H2v1.5zM1.75 14V2H.25v12h1.5zM8.047 1.838l.97 1.147 1.145-.97L9.192.87l-1.145.97zM4 14.25H2v1.5h2v-1.5zM.25 14c0 .966.784 1.75 1.75 1.75v-1.5a.25.25 0 01-.25-.25H.25zM7.856 1.75a.25.25 0 01.191.088L9.192.87A1.75 1.75 0 007.856.25v1.5zM2 .25A1.75 1.75 0 00.25 2h1.5A.25.25 0 012 1.75V.25zm12.422 10a4.172 4.172 0 01-4.172 4.172v1.5a5.672 5.672 0 005.672-5.672h-1.5zm-4.172 4.172a4.172 4.172 0 01-4.172-4.172h-1.5a5.672 5.672 0 005.672 5.672v-1.5zM6.078 10.25a4.172 4.172 0 014.172-4.172v-1.5a5.672 5.672 0 00-5.672 5.672h1.5zm4.172-4.172a4.172 4.172 0 014.172 4.172h1.5a5.672 5.672 0 00-5.672-5.672v1.5zm.75 6.36V8.061H9.5v4.376H11zM12.438 9.5H8.061V11h4.376V9.5z" fill="#000"/></svg>
